svgs/charts/chart-breakout-circle.svg

<svg width="24" height="24" viewBox="0 0 24 24" fill="none" xmlns="http://www.w3.org/2000/svg">
<path d="M15.5 3.5V2M19.4393 4.56066L20.5 3.5M20.5103 8.5H22.0103M21.9506 13C21.4489 18.0533 17.1853 22 12 22C6.47715 22 2 17.5228 2 12C2 6.81465 5.94668 2.5511 11 2.04938M12 8H16V12M15.6197 8C13.2653 11.3276 9.38636 13.5 5 13.5C3.9971 13.5 3.02072 13.3864 2.08302 13.1715" stroke="#1C1D20" stroke-width="1.5" stroke-linecap="round" stroke-linejoin="round"/>
</svg>

<svg fill="none" xmlns="http://www.w3.org/2000/svg" viewBox="0 0 24 24"><path d="M15.5 3.5V2m3.94 2.56L20.5 3.5m.01 5h1.5m-.06 4.5c-.501 5.053-4.765 9-9.95 9-5.523 0-10-4.477-10-10 0-5.185 3.947-9.449 9-9.95M12 8h4v4m-.38-4A12.984 12.984 0 0 1 5 13.5c-1.003 0-1.98-.114-2.917-.329" stroke="#1C1D20" stroke-width="1.5" stroke-linecap="round" stroke-linejoin="round"/></svg>
